src/assets/duotone/Chrome.svg

<svg width="24" height="24" viewBox="0 0 24 24"  xmlns="http://www.w3.org/2000/svg">
<path opacity="0.4" d="M22 12C22 17.47 17.61 21.91 12.16 22H12C11.39 22 10.79 21.94 10.21 21.84C5.54 20.99 2 16.91 2 12C2 10.29 2.43 8.68 3.19 7.27C3.5 6.7 3.86 6.15 4.27 5.65C6.11 3.42 8.89 2 12 2C15.56 2 18.68 3.86 20.45 6.66C20.8 7.21 21.1 7.8 21.34 8.42C21.77 9.53 22 10.74 22 12Z" />
<path d="M15.0999 8.02039C17.1799 7.85039 19.2699 7.98039 21.3399 8.42039C21.0999 7.80039 20.7999 7.21039 20.4499 6.66039C17.5799 6.19039 14.6799 6.28039 11.8199 6.90039C9.38994 6.98039 7.40994 8.78039 7.03994 11.1304C5.87994 9.45039 4.93994 7.62039 4.26994 5.65039C3.85994 6.15039 3.49994 6.70039 3.18994 7.27039C4.24994 9.96039 5.73994 12.3604 7.64994 14.4704C7.66994 14.4904 7.69994 14.5004 7.71994 14.5204C8.62994 15.9904 10.2399 16.9004 11.9699 16.9004C12.5799 16.9004 13.1699 16.7804 13.7199 16.5704C12.8099 18.4804 11.6499 20.2504 10.2099 21.8404C10.7899 21.9404 11.3899 22.0004 11.9999 22.0004H12.1599C14.0099 19.7404 15.4099 17.1804 16.3499 14.3004C16.7599 13.5604 16.9799 12.7304 16.9799 11.8904C16.9799 10.3204 16.2399 8.94039 15.0999 8.02039ZM14.9299 13.6104C14.3299 14.6604 13.1899 15.3204 11.9699 15.3204C10.7499 15.3204 9.61994 14.6604 9.00994 13.6104C8.69994 13.0704 8.54994 12.5004 8.54994 11.8904C8.54994 10.0004 10.0799 8.47039 11.9699 8.47039C13.8599 8.47039 15.3999 10.0004 15.3999 11.8904C15.3999 12.5004 15.2399 13.0704 14.9299 13.6104Z" />
</svg>

<?xml version="1.0" encoding="UTF-8"?>
<svg width="24" height="24" viewBox="0 0 24 24" xmlns="http://www.w3.org/2000/svg">
 <path d="M22 12C22 17.47 17.61 21.91 12.16 22H12C11.39 22 10.79 21.94 10.21 21.84C5.54 20.99 2 16.91 2 12C2 10.29 2.43 8.68 3.19 7.27C3.5 6.7 3.86 6.15 4.27 5.65C6.11 3.42 8.89 2 12 2C15.56 2 18.68 3.86 20.45 6.66C20.8 7.21 21.1 7.8 21.34 8.42C21.77 9.53 22 10.74 22 12Z" opacity=".4"/>
 <path d="m15.1 8.0204c2.08-0.17 4.17-0.04 6.24 0.4-0.24-0.62-0.54-1.21-0.89-1.76-2.87-0.47-5.77-0.38-8.63 0.24-2.43 0.08-4.41 1.88-4.78 4.23-1.16-1.68-2.1-3.51-2.77-5.48-0.41 0.5-0.77 1.05-1.08 1.62 1.06 2.69 2.55 5.09 4.46 7.2 0.02 0.02 0.05 0.03 0.07 0.05 0.91 1.47 2.52 2.38 4.25 2.38 0.61 0 1.2-0.12 1.75-0.33-0.91 1.91-2.07 3.68-3.51 5.27 0.58 0.1 1.18 0.16 1.79 0.16h0.16c1.85-2.26 3.25-4.82 4.19-7.7 0.41-0.74 0.63-1.57 0.63-2.41 0-1.57-0.74-2.95-1.88-3.87zm-0.17 5.59c-0.6 1.05-1.74 1.71-2.96 1.71s-2.35-0.66-2.96-1.71c-0.31-0.54-0.46-1.11-0.46-1.72 0-1.89 1.53-3.42 3.42-3.42s3.43 1.53 3.43 3.42c0 0.61-0.16 1.18-0.47 1.72z"/>
</svg>
